polaris-icons/icons/new-icons/SecureMajor.svg

<svg width="20" height="20" viewBox="0 0 20 20" fill="none" xmlns="http://www.w3.org/2000/svg">
<path d="M8.28032 8.68256C7.98743 8.38967 7.51255 8.38967 7.21966 8.68256C6.92677 8.97545 6.92677 9.45033 7.21966 9.74322L8.76776 11.2913C9.06065 11.5842 9.53553 11.5842 9.82842 11.2913L12.7907 8.32901C13.0836 8.03611 13.0836 7.56124 12.7907 7.26835C12.4978 6.97545 12.023 6.97545 11.7301 7.26835L9.29809 9.70033L8.28032 8.68256Z" fill="#4A4A4A"/>
<path fill-rule="evenodd" clip-rule="evenodd" d="M11.0932 2.91375C10.4541 2.40245 9.54592 2.40245 8.90679 2.91375L8.58988 3.16728C7.60347 3.95641 6.52283 4.61992 5.37281 5.14256L4.52596 5.52742C3.90734 5.80856 3.4829 6.43862 3.51511 7.15504C3.79613 13.4042 7.8959 16.2026 9.2485 16.957C9.71777 17.2187 10.2821 17.2187 10.7514 16.9571C12.1033 16.2036 16.2048 13.4078 16.485 7.17393C16.517 6.4613 16.097 5.83378 15.4834 5.55055L14.5832 5.13509C13.4633 4.61824 12.4103 3.96744 11.4472 3.19696L11.0932 2.91375ZM9.84383 4.08506C9.93513 4.01201 10.0649 4.01201 10.1562 4.08506L10.5102 4.36826C11.568 5.21453 12.7246 5.92934 13.9546 6.49703L14.8548 6.91249C14.9494 6.95618 14.9895 7.03989 14.9865 7.10658C14.7398 12.5957 11.1587 15.0129 10.0211 15.6469C10.0113 15.6524 10.0044 15.6533 10.0001 15.6533C9.99573 15.6533 9.98888 15.6524 9.97913 15.6469C8.84254 15.013 5.2612 12.5937 5.0136 7.08766C5.01058 7.02053 5.05113 6.93638 5.14657 6.89301L5.99342 6.50815C7.25656 5.9341 8.44349 5.20533 9.52692 4.33858L9.84383 4.08506Z" fill="#4A4A4A"/>
</svg>

<svg viewBox="0 0 20 20" xmlns="http://www.w3.org/2000/svg"><path d="M8.28 8.683a.75.75 0 0 0-1.06 1.06l1.548 1.548a.75.75 0 0 0 1.06 0l2.963-2.962a.75.75 0 0 0-1.06-1.06l-2.433 2.431-1.018-1.017Z" fill="#5C5F62"/><path fill-rule="evenodd" d="M11.093 2.914a1.75 1.75 0 0 0-2.186 0l-.317.253a15.25 15.25 0 0 1-3.217 1.976l-.847.384a1.71 1.71 0 0 0-1.01 1.628c.28 6.25 4.38 9.048 5.732 9.802.47.262 1.034.262 1.503 0 1.352-.753 5.454-3.55 5.734-9.783a1.71 1.71 0 0 0-1.002-1.623l-.9-.416a15.249 15.249 0 0 1-3.136-1.938l-.354-.283Zm-1.25 1.171a.25.25 0 0 1 .313 0l.354.283a16.749 16.749 0 0 0 3.445 2.129l.9.415c.094.044.134.128.131.195-.246 5.489-3.827 7.906-4.965 8.54a.042.042 0 0 1-.02.006c-.005 0-.012 0-.022-.006-1.136-.634-4.718-3.053-4.965-8.56-.003-.066.037-.15.133-.194l.846-.385a16.75 16.75 0 0 0 3.534-2.17l.317-.253Z" fill="#5C5F62"/></svg>
